assets/icons/insert/image.svg

<?xml version="1.0" encoding="UTF-8" standalone="no"?>
<svg viewBox="0 0 24 24" height="24" id="svg7384" version="1.1" width="24" sodipodi:docname="image.svg" inkscape:version="1.1 (ce6663b3b7, 2021-05-25)"
   xmlns:inkscape="http://www.inkscape.org/namespaces/inkscape"
   xmlns:sodipodi="http://sodipodi.sourceforge.net/DTD/sodipodi-0.dtd"
   xmlns="http://www.w3.org/2000/svg"
   xmlns:svg="http://www.w3.org/2000/svg"
   xmlns:rdf="http://www.w3.org/1999/02/22-rdf-syntax-ns#"
   xmlns:cc="http://creativecommons.org/ns#"
   xmlns:dc="http://purl.org/dc/elements/1.1/">
   <sodipodi:namedview id="namedview24" pagecolor="#ffffff" bordercolor="#666666" borderopacity="1.0" inkscape:pageshadow="2" inkscape:pageopacity="0.0" inkscape:pagecheckerboard="0" showgrid="true" inkscape:snap-page="true" inkscape:zoom="28" inkscape:cx="12.482143" inkscape:cy="13.964286" inkscape:window-width="1920" inkscape:window-height="1043" inkscape:window-x="1920" inkscape:window-y="0" inkscape:window-maximized="1" inkscape:current-layer="svg7384">
      <inkscape:grid type="xygrid" id="grid1105" />
      <inkscape:grid dotted="true" spacingx="0.5" spacingy="0.5" empspacing="10" type="xygrid" id="grid841" />
   </sodipodi:namedview>
   <metadata id="metadata20854">
      <rdf:RDF>
         <cc:Work rdf:about="">
            <dc:format>image/svg+xml</dc:format>
            <dc:type rdf:resource="http://purl.org/dc/dcmitype/StillImage" />
         </cc:Work>
      </rdf:RDF>
   </metadata>
   <defs id="defs7386">
      <linearGradient id="linearGradient5606" inkscape:swatch="solid">
         <stop id="stop5608" offset="0" style="stop-color:#000000;stop-opacity:1;" />
      </linearGradient>
      <linearGradient id="linearGradient4526" inkscape:swatch="solid">
         <stop id="stop4528" offset="0" style="stop-color:#ffffff;stop-opacity:1;" />
      </linearGradient>
      <linearGradient id="linearGradient3600-4" inkscape:swatch="gradient">
         <stop id="stop3602-7" offset="0" style="stop-color:#f4f4f4;stop-opacity:1" />
         <stop id="stop3604-6" offset="1" style="stop-color:#dbdbdb;stop-opacity:1" />
      </linearGradient>
   </defs>
   <g id="layer9" label="status" style="display:inline;stroke-width:0.8" transform="matrix(1.25,0,0,1.25,-514.25025,185.75)" />
   <g id="layer2" style="display:inline;stroke-width:0.8" transform="matrix(1.25,0,0,1.25,-213,-273)" />
   <g id="layer4" style="display:inline;stroke-width:0.8" transform="matrix(1.25,0,0,1.25,-213,-273)" />
   <g id="g1812" style="display:inline;stroke-width:0.8" transform="matrix(1.25,0,0,1.25,-213,-273)" />
   <g id="g6217" style="display:inline;stroke-width:0.8" transform="matrix(1.25,0,0,1.25,-213,-273)" />
   <g id="layer3" style="display:inline;stroke-width:0.8" transform="matrix(1.25,0,0,1.25,-213,-273)" />
   <g id="g1833" style="display:inline;stroke-width:0.8" transform="matrix(1.25,0,0,1.25,-213,-273)" />
   <path id="path876" style="color:#000000;fill:#808080;-inkscape-stroke:none" d="M 7.4550781 3.0019531 C 6.4864972 3.0109338 5.7372591 3.0752225 5.1171875 3.4472656 C 4.7038064 3.6952943 4.3972496 4.1031731 4.2285156 4.609375 C 4.0597817 5.1155769 4 5.7241761 4 6.5019531 L 4 12.501953 C 4 13.27973 4.059782 13.888329 4.2285156 14.394531 C 4.3972496 14.900733 4.7038064 15.306658 5.1171875 15.554688 C 5.9439497 16.050745 7.0000015 16.001953 8.5 16.001953 L 14.5 16.001953 C 15.999999 16.001953 17.05605 16.050742 17.882812 15.554688 C 18.296194 15.306658 18.60275 14.900733 18.771484 14.394531 C 18.940218 13.888329 19 13.27973 19 12.501953 L 19 6.5019531 C 19 5.7241761 18.94022 5.1155769 18.771484 4.609375 C 18.60275 4.1031731 18.296194 3.6952943 17.882812 3.4472656 C 17.056051 2.9512083 15.999999 3.0019531 14.5 3.0019531 L 8.5 3.0019531 C 8.1250004 3.0019531 7.7779384 2.9989596 7.4550781 3.0019531 z M 8.5 4.0019531 L 14.5 4.0019531 C 15.999999 4.0019531 16.943951 4.0507461 17.367188 4.3046875 C 17.578806 4.4316585 17.70975 4.5882341 17.822266 4.9257812 C 17.934781 5.2633285 18 5.7797316 18 6.5019531 L 18 12.501953 C 18 12.68111 17.996034 12.847715 17.988281 13.001953 L 5.0117188 13.001953 C 5.0039658 12.847715 5 12.68111 5 12.501953 L 5 6.5019531 C 5 5.7797316 5.065219 5.2633285 5.1777344 4.9257812 C 5.2902501 4.588234 5.4211942 4.4316585 5.6328125 4.3046875 C 6.056049 4.0507456 7.0000015 4.0019531 8.5 4.0019531 z " />
   <path style="fill:#808080;fill-opacity:1;stroke:none;stroke-width:1px;stroke-linecap:butt;stroke-linejoin:miter" d="m 7,12.001393 2.5,-5.0000003 1.5,2.5 1.5,-1.5 2.5,4.0000003 z" id="path1513" sodipodi:nodetypes="cccccc" />
   <circle style="fill:#808080;fill-opacity:1;fill-rule:evenodd;stroke:none;stroke-width:2" id="path1806" cx="15" cy="7.0013928" r="1" />
   <g id="layer1" style="display:inline;stroke-width:0.8" transform="matrix(1.25,0,0,1.25,-195.77274,-272.5016)">
      <path style="color:#000000;display:inline;overflow:visible;visibility:visible;opacity:1;fill:#808080;fill-opacity:1;fill-rule:nonzero;stroke:none;stroke-width:0.599882;marker:none;enable-background:accumulate" d="m 167.99999,231.60139 -4.36361,0.001 c 0.30341,0.66365 0.64289,1.33926 1.01795,2.02713 0.37595,0.68141 0.76372,1.33869 1.16367,1.97142 0.39196,-0.63273 0.77602,-1.29001 1.15197,-1.97142 0.37527,-0.68825 0.71852,-1.36424 1.03003,-2.02824 z" id="path6606" />
   </g>
</svg>

<svg height="24" width="24" xmlns="http://www.w3.org/2000/svg"><path style="color:#000;fill:gray;-inkscape-stroke:none" d="M7.455 3.002c-.969.009-1.718.073-2.338.445-.413.248-.72.656-.888 1.162C4.059 5.116 4 5.724 4 6.502v6c0 .778.06 1.386.229 1.893.168.506.475.912.888 1.16.827.496 1.883.447 3.383.447h6c1.5 0 2.556.049 3.383-.447.413-.248.72-.654.888-1.16.17-.507.229-1.115.229-1.893v-6c0-.778-.06-1.386-.229-1.893-.168-.506-.475-.914-.888-1.162-.827-.496-1.883-.445-3.383-.445h-6c-.375 0-.722-.003-1.045 0zm1.045 1h6c1.5 0 2.444.049 2.867.303.212.127.343.283.455.62.113.338.178.855.178 1.577v6c0 .18-.004.346-.012.5H5.012a9.992 9.992 0 0 1-.012-.5v-6c0-.722.065-1.239.178-1.576.112-.338.243-.494.455-.621C6.056 4.05 7 4.002 8.5 4.002z"/><path style="fill:gray;fill-opacity:1;stroke:none;stroke-width:1px;stroke-linecap:butt;stroke-linejoin:miter" d="m7 12.001 2.5-5 1.5 2.5 1.5-1.5 2.5 4z"/><path style="fill:gray;stroke-width:2" d="M16 7.001a1 1 0 0 1-1 1 1 1 0 0 1-1-1 1 1 0 0 1 1-1 1 1 0 0 1 1 1z"/><path style="color:#000;display:inline;overflow:visible;visibility:visible;fill:gray;fill-opacity:1;fill-rule:nonzero;stroke:none;stroke-width:.749853;marker:none;enable-background:accumulate" d="M14.227 17H8.772c.38.83.804 1.675 1.272 2.535a48.4 48.4 0 0 0 1.455 2.463c.49-.79.97-1.613 1.44-2.463a46.7 46.7 0 0 0 1.288-2.536z"/></svg>
